X: 899
T: The first of May
C: anon.
O: Ireland
B: Francis O'Neill: "The Dance Music of Ireland" (1907) no. 899
R: Hornpipe
Z: Transcribed by Frank Nordberg - http://www.musicaviva.com
F: http://www.musicaviva.com/abc/tunes/ireland/oneill-1001/oneill-1001-089
9.abc
M: 2/4
L: 1/16
K: Ador
(AG)|EAAB cBcA|dcde f2(ef)|gedc dfed|cAGF G2G2|EAAB cBcA|dcde f2(ef)|gedc
 dfec|A2AA A2:|
|:(fg)|a2af g2ge|fgfd e2(ed)|cdef gfed|cAGF G2G2|EAAB cBcA|dcde f2(ef)|ge
dc dfeA|A2AA A2:|
W:
W:
W: From Musica Viva - http://www.musicaviva.com
W: the Internet center for free sheet music downloads.
